X: 40797
T: Tra Na Mban
R: jig
M: 6/8
K: Cmajor
D|:EGc edc|cdB c2 d|cAG EFG|FDC ~_B,3|
G,CE EDE|Gce fed|cAG FD=B,|~C3 CGF:|
|:EGc ege|fdc B2 d|cBc (3EFG c|AGE D^CD|
ECE FEF|Gce fed|cAG FDB,|~C3 CGF:|

